src/img/hello.svg

<svg width="22" height="24" viewBox="0 0 22 24" fill="none" xmlns="http://www.w3.org/2000/svg">
<path d="M11 24.0001C11.7956 24.0001 12.5587 23.684 13.1213 23.1214C13.6839 22.5588 14 21.7957 14 21.0001H8C8 21.7957 8.31607 22.5588 8.87868 23.1214C9.44129 23.684 10.2044 24.0001 11 24.0001ZM11 2.87709L9.8045 3.11859C8.44844 3.39489 7.2295 4.13125 6.35398 5.20302C5.47846 6.2748 5.00015 7.61617 5 9.00009C5 9.94209 4.799 12.2956 4.3115 14.6131C4.0715 15.7636 3.7475 16.9621 3.317 18.0001H18.683C18.2525 16.9621 17.93 15.7651 17.6885 14.6131C17.201 12.2956 17 9.94209 17 9.00009C16.9995 7.61643 16.521 6.27541 15.6455 5.20394C14.7701 4.13247 13.5513 3.39634 12.1955 3.12009L11 2.87709ZM20.33 18.0001C20.6645 18.6706 21.0515 19.2016 21.5 19.5001H0.5C0.9485 19.2016 1.3355 18.6706 1.67 18.0001C3.02 15.3001 3.5 10.3201 3.5 9.00009C3.5 5.37009 6.08 2.34009 9.5075 1.64859C9.48656 1.44002 9.50958 1.22938 9.57505 1.03025C9.64052 0.831122 9.74701 0.647926 9.88763 0.492479C10.0283 0.337031 10.1999 0.212784 10.3915 0.127749C10.5831 0.0427135 10.7904 -0.0012207 11 -0.0012207C11.2096 -0.0012207 11.4169 0.0427135 11.6085 0.127749C11.8001 0.212784 11.9717 0.337031 12.1124 0.492479C12.253 0.647926 12.3595 0.831122 12.4249 1.03025C12.4904 1.22938 12.5134 1.44002 12.4925 1.64859C14.1879 1.99344 15.7121 2.91363 16.8069 4.25334C17.9016 5.59305 18.4998 7.26995 18.5 9.00009C18.5 10.3201 18.98 15.3001 20.33 18.0001Z" fill="white"/>
</svg>

<svg xmlns="http://www.w3.org/2000/svg" width="22" height="24" fill="none"><path fill="#fff" d="M11 24a3 3 0 0 0 3-3H8a3 3 0 0 0 3 3Zm0-21.123-1.195.242A6.003 6.003 0 0 0 5 9c0 .942-.201 3.296-.689 5.613-.24 1.15-.563 2.35-.994 3.387h15.366c-.43-1.038-.753-2.235-.994-3.387C17.2 12.296 17 9.943 17 9a6.003 6.003 0 0 0-4.805-5.88L11 2.877ZM20.33 18c.335.67.722 1.202 1.17 1.5H.5c.449-.298.835-.83 1.17-1.5 1.35-2.7 1.83-7.68 1.83-9 0-3.63 2.58-6.66 6.008-7.351a1.5 1.5 0 1 1 2.985 0A7.503 7.503 0 0 1 18.5 9c0 1.32.48 6.3 1.83 9Z"/></svg>
